assets/img/scrol.svg

<svg width="120" height="120" viewBox="0 0 120 120" fill="none" xmlns="http://www.w3.org/2000/svg">
<circle cx="60" cy="60" r="60" fill="#F3F3F3"/>
<path d="M86.6835 59.6252C87.2725 58.7517 87.6168 57.7002 87.6168 56.5697V55.5253C87.6168 52.5041 85.1587 50.046 82.1375 50.046C80.6301 50.046 79.2629 50.6581 78.2712 51.6467C75.7053 44.0155 68.4841 38.5033 59.9993 38.5033C51.5146 38.5033 44.2934 44.0154 41.7275 51.6467C40.7358 50.6581 39.3687 50.046 37.8612 50.046C34.84 50.046 32.3819 52.5041 32.3819 55.5253V56.5697C32.3819 57.7002 32.7262 58.7517 33.3152 59.6252C29.5224 60.4244 26.666 63.7961 26.666 67.8232V70.4448C26.666 71.1638 27.2491 71.7469 27.9681 71.7469H34.7389C35.4579 71.7469 36.041 71.1638 36.041 70.4448C36.041 69.7258 35.4579 69.1428 34.7389 69.1428H29.2702V67.8232C29.2702 64.6392 31.8605 62.0489 35.0445 62.0489H41.2072C41.7069 64.2469 42.5828 66.3037 43.7646 68.1467L28.9079 83.0033C27.0056 84.9058 27.0056 88.0015 28.9081 89.9041C29.8594 90.8554 31.1087 91.3309 32.3583 91.3309C33.6079 91.3309 34.8576 90.8553 35.8089 89.9041L43.9993 81.7135C44.5078 81.205 44.5078 80.3805 43.9993 79.8719C43.4908 79.3636 42.6665 79.3636 42.1578 79.8719L33.9674 88.0625C33.0801 88.9498 31.6366 88.9497 30.7493 88.0627C29.8622 87.1754 29.8622 85.7318 30.7493 84.8446L45.3336 70.2605C48.871 74.4092 54.1328 77.045 59.9993 77.045C69.1566 77.045 76.8418 70.6244 78.7915 62.0489H84.9542C88.1381 62.0489 90.7285 64.6392 90.7285 67.8232V69.1428H78.4889C77.7699 69.1428 77.1868 69.7258 77.1868 70.4448C77.1868 71.1638 77.7699 71.7469 78.4889 71.7469H92.0306C92.7496 71.7469 93.3327 71.1638 93.3327 70.4448V67.8232C93.3327 63.7961 90.4763 60.4244 86.6835 59.6252ZM79.2622 55.5254C79.2622 53.94 80.5519 52.6503 82.1374 52.6503C83.7228 52.6503 85.0125 53.94 85.0125 55.5254V56.5698C85.0125 58.1551 83.7228 59.4448 82.1374 59.4448C80.5519 59.4448 79.2622 58.1551 79.2622 56.5698V55.5254ZM34.9861 55.5254C34.9861 53.94 36.2758 52.6503 37.8612 52.6503C39.4466 52.6503 40.7363 53.94 40.7363 55.5254V56.5698C40.7363 58.1551 39.4466 59.4448 37.8612 59.4448C36.2758 59.4448 34.9861 58.1551 34.9861 56.5698V55.5254ZM59.9993 74.4408C50.8094 74.4408 43.3327 66.9641 43.3327 57.7741C43.3327 48.5842 50.8094 41.1075 59.9993 41.1075C69.1893 41.1075 76.666 48.5842 76.666 57.7741C76.666 66.9641 69.1893 74.4408 59.9993 74.4408Z" fill="#6ADF91"/>
<path d="M59.999 43.7115C52.2449 43.7115 45.9365 50.0199 45.9365 57.7741C45.9365 61.7988 47.6365 65.4336 50.3555 67.9993C50.402 68.0496 50.4519 68.097 50.5066 68.1399C53.01 70.4343 56.3437 71.8366 59.999 71.8366C63.6544 71.8366 66.9881 70.4342 69.4915 68.1399C69.5462 68.0971 69.596 68.0496 69.6425 67.9993C72.3615 65.4336 74.0615 61.7988 74.0615 57.7741C74.0615 50.02 67.7532 43.7115 59.999 43.7115ZM52.9031 66.7644C54.2865 64.1467 56.9826 62.4997 59.999 62.4997C63.0154 62.4997 65.7115 64.1467 67.095 66.7644C65.1421 68.3091 62.6765 69.2324 59.999 69.2324C57.3215 69.2324 54.8559 68.3091 52.9031 66.7644ZM57.2551 57.1517V56.1401C57.2551 54.627 58.486 53.3962 59.999 53.3962C61.512 53.3962 62.7429 54.627 62.7429 56.1401V57.1517C62.7429 58.6647 61.512 59.8955 59.999 59.8955C58.486 59.8955 57.2551 58.6647 57.2551 57.1517ZM68.9997 64.8573C67.8068 62.954 66.0609 61.5026 64.0174 60.675C64.8441 59.7332 65.3471 58.5005 65.3471 57.1518V56.1402C65.3471 53.1914 62.9479 50.7922 59.999 50.7922C57.0502 50.7922 54.651 53.1914 54.651 56.1402V57.1518C54.651 58.5005 55.1538 59.7332 55.9807 60.675C53.9372 61.5027 52.1913 62.954 50.9984 64.8573C49.4598 62.9065 48.5407 60.4457 48.5407 57.7741C48.5407 51.456 53.6809 46.3157 59.999 46.3157C66.3171 46.3157 71.4574 51.456 71.4574 57.7741C71.4574 60.4457 70.5382 62.9065 68.9997 64.8573Z" fill="#4BB1E9"/>
<path d="M46.5618 76.0077C46.2194 76.0077 45.8835 76.147 45.6413 76.3892C45.3992 76.6314 45.2598 76.9673 45.2598 77.3098C45.2598 77.6522 45.3991 77.9882 45.6413 78.2303C45.8835 78.4724 46.2194 78.6119 46.5618 78.6119C46.9043 78.6119 47.2402 78.4725 47.4824 78.2303C47.7245 77.9882 47.8639 77.6522 47.8639 77.3098C47.8639 76.9673 47.7246 76.6314 47.4824 76.3892C47.2402 76.147 46.9043 76.0077 46.5618 76.0077Z" fill="#6ADF91"/>
<path d="M60.0257 31.7009C60.7447 31.7009 61.3278 31.1178 61.3278 30.3988V25.9686C61.3278 25.2496 60.7447 24.6665 60.0257 24.6665C59.3067 24.6665 58.7236 25.2496 58.7236 25.9686V30.3988C58.7236 31.1179 59.3067 31.7009 60.0257 31.7009Z" fill="#4BB1E9"/>
<path d="M60.0257 35.9945C60.3695 35.9945 60.7041 35.8552 60.9462 35.6129C61.1884 35.3709 61.3278 35.0349 61.3278 34.6925C61.3278 34.35 61.1885 34.0141 60.9462 33.7719C60.7041 33.5297 60.3693 33.3904 60.0257 33.3904C59.6831 33.3904 59.3473 33.5296 59.1051 33.7719C58.863 34.0142 58.7236 34.35 58.7236 34.6925C58.7236 35.0349 58.8628 35.3709 59.1051 35.6129C59.3473 35.8551 59.6831 35.9945 60.0257 35.9945Z" fill="#4BB1E9"/>
<path d="M67.8549 34.2855C68.1883 34.2855 68.5213 34.1583 68.7756 33.9042L71.0642 31.6156C71.5726 31.1071 71.5726 30.2827 71.0642 29.7741C70.5556 29.2657 69.7314 29.2657 69.2226 29.7741L66.9341 32.0626C66.4256 32.5711 66.4256 33.3956 66.9341 33.9042C67.1885 34.1583 67.5216 34.2855 67.8549 34.2855Z" fill="#4BB1E9"/>
<path d="M51.2448 33.9199C51.4991 34.1741 51.8323 34.3013 52.1655 34.3013C52.4987 34.3013 52.8319 34.1741 53.0862 33.9199C53.5946 33.4115 53.5946 32.587 53.0862 32.0784L50.7756 29.7678C50.267 29.2595 49.4428 29.2595 48.9341 29.7678C48.4256 30.2763 48.4256 31.1008 48.9341 31.6094L51.2448 33.9199Z" fill="#4BB1E9"/>
</svg>

<svg width="120" height="120" fill="none" xmlns="http://www.w3.org/2000/svg"><circle cx="60" cy="60" r="60" fill="#F3F3F3"/><path d="M86.683 59.625a5.448 5.448 0 00.934-3.055v-1.045a5.486 5.486 0 00-5.48-5.479 5.462 5.462 0 00-3.866 1.6C75.705 44.017 68.484 38.504 60 38.504s-15.706 5.512-18.272 13.144a5.462 5.462 0 00-3.866-1.601 5.486 5.486 0 00-5.48 5.48v1.044c0 1.13.345 2.182.934 3.055-3.793.8-6.649 4.171-6.649 8.198v2.622c0 .719.583 1.302 1.302 1.302h6.77a1.302 1.302 0 000-2.604H29.27v-1.32a5.78 5.78 0 015.774-5.774h6.163a19.162 19.162 0 002.558 6.098L28.908 83.003a4.885 4.885 0 000 6.901 4.864 4.864 0 003.45 1.427c1.25 0 2.5-.476 3.45-1.427L44 81.714a1.302 1.302 0 00-1.841-1.842l-8.19 8.19a2.278 2.278 0 01-3.219 0 2.278 2.278 0 010-3.217L45.334 70.26c3.537 4.15 8.799 6.785 14.665 6.785 9.158 0 16.843-6.42 18.792-14.996h6.163a5.78 5.78 0 015.775 5.774v1.32h-12.24a1.302 1.302 0 000 2.604H92.03c.719 0 1.302-.583 1.302-1.302v-2.622c0-4.027-2.857-7.399-6.65-8.198zm-7.42-4.1a2.878 2.878 0 012.874-2.875 2.878 2.878 0 012.876 2.875v1.045a2.878 2.878 0 01-2.876 2.875 2.878 2.878 0 01-2.875-2.875v-1.045zm-44.277 0a2.878 2.878 0 012.875-2.875 2.878 2.878 0 012.875 2.875v1.045a2.878 2.878 0 01-2.875 2.875 2.878 2.878 0 01-2.875-2.875v-1.045zM60 74.441c-9.19 0-16.666-7.477-16.666-16.667 0-9.19 7.476-16.666 16.666-16.666 9.19 0 16.667 7.476 16.667 16.666 0 9.19-7.477 16.667-16.667 16.667z" fill="#6ADF91"/><path d="M59.999 43.712c-7.754 0-14.063 6.308-14.063 14.062 0 4.025 1.7 7.66 4.42 10.225.046.05.096.098.15.14A14.008 14.008 0 0060 71.838c3.655 0 6.99-1.403 9.492-3.697.055-.043.105-.09.151-.14a14.025 14.025 0 004.42-10.226c0-7.754-6.309-14.063-14.063-14.063zm-7.096 23.052A7.984 7.984 0 0160 62.5a7.985 7.985 0 017.096 4.264A11.402 11.402 0 0160 69.232a11.4 11.4 0 01-7.096-2.468zm4.352-9.612V56.14A2.747 2.747 0 0160 53.396a2.747 2.747 0 012.744 2.744v1.012A2.747 2.747 0 0160 59.895a2.747 2.747 0 01-2.744-2.743zM69 64.857a10.547 10.547 0 00-4.983-4.182 5.325 5.325 0 001.33-3.523V56.14c0-2.949-2.4-5.348-5.348-5.348a5.354 5.354 0 00-5.348 5.348v1.012c0 1.349.503 2.581 1.33 3.523a10.547 10.547 0 00-4.983 4.182 11.402 11.402 0 01-2.457-7.083c0-6.318 5.14-11.458 11.458-11.458 6.318 0 11.458 5.14 11.458 11.458 0 2.672-.919 5.133-2.457 7.083z" fill="#4BB1E9"/><path d="M46.562 76.008a1.31 1.31 0 00-.92.381 1.312 1.312 0 00-.382.92c0 .343.14.68.381.921.242.242.578.382.92.382.343 0 .68-.14.921-.382.242-.242.382-.578.382-.92 0-.343-.14-.679-.382-.92a1.312 1.312 0 00-.92-.382z" fill="#6ADF91"/><path d="M60.026 31.7c.719 0 1.302-.582 1.302-1.301v-4.43a1.302 1.302 0 00-2.604 0v4.43c0 .719.583 1.302 1.302 1.302zm0 4.295c.343 0 .678-.14.92-.382s.382-.578.382-.92c0-.343-.14-.679-.382-.921a1.31 1.31 0 00-.92-.382c-.343 0-.679.14-.92.382a1.312 1.312 0 00-.382.92 1.308 1.308 0 001.301 1.303zm7.829-1.71a1.3 1.3 0 00.92-.38l2.29-2.29a1.302 1.302 0 00-1.842-1.84l-2.289 2.288a1.302 1.302 0 00.92 2.222zm-16.61-.365a1.298 1.298 0 001.841 0 1.302 1.302 0 000-1.842l-2.31-2.31a1.303 1.303 0 00-1.842 1.841l2.31 2.31z" fill="#4BB1E9"/></svg>
